X:221
T:Wissahickon Drive
M:4/4
L:1/8
C:Liz Carroll
R:reel
Z:id:hn-reel-257
N:Melanie
K:A
EFAB cBAB|ceef ecBA|F2dF eFde|fedf ecBA|
EFAB cBAB|ceef ecBA|~f3a e2cA|1 BAGB ~A3F:|2 BAGB ABce||
|:a2ga baga|~f3e feaf|ec~c2 acec|1 fcec BAce|
a2ga baga|f2de feaf|ec~c2 afec|BABc ABce:|2 fcec BABc|
ABce a2ga|f2de feaf|ec~c2 afec|BABc ~A3F||
